icons/properties.svg

<svg width="16" height="16" viewBox="0 0 16 16" fill="none" xmlns="http://www.w3.org/2000/svg">
<path fill-rule="evenodd" clip-rule="evenodd" d="M2 4C2 2.5 2.5 2 4 2H12C13.5 2 14 2.5 14 4V12C14 13.5 13.5 14 12 14H4C2.5 14 2 13.5 2 12V4ZM8.03117 10.5629C8.31284 10.8543 8.67071 11 9.10476 11C9.6404 11 10.1322 10.8786 10.5801 10.6357C11.185 10.3062 11.6583 9.77016 12 9.02775H11.4043C11.2889 9.30876 11.118 9.53426 10.8918 9.70425C10.6563 9.88118 10.4023 9.96964 10.1299 9.96964C9.87128 9.96964 9.67734 9.902 9.54805 9.7667C9.40491 9.62099 9.30563 9.37814 9.25022 9.03816L9.11861 8.29402C9.50188 7.98179 9.80664 7.7268 10.0329 7.52905C10.2638 7.33131 10.4554 7.14918 10.6078 6.98265C10.774 6.80226 10.8964 6.63053 10.9749 6.46748C11.0534 6.30095 11.0926 6.13617 11.0926 5.97311C11.0926 5.85516 11.0742 5.73894 11.0372 5.62446C11.0049 5.5065 10.9564 5.40069 10.8918 5.30703C10.8225 5.21336 10.7371 5.13877 10.6355 5.08326C10.5339 5.02775 10.4208 5 10.2961 5C10.0144 5 9.79048 5.0399 9.62424 5.11969C9.4303 5.22029 9.33333 5.35559 9.33333 5.52559C9.33333 5.70598 9.38413 5.84475 9.48571 5.94189C9.59654 6.05984 9.76739 6.11882 9.99827 6.11882C10.0675 6.11882 10.1483 6.11188 10.2407 6.09801C10.2176 6.29575 10.1068 6.51778 9.90823 6.76409C9.70967 7.00694 9.40952 7.29662 9.00779 7.63313L8.88312 6.82134C8.83694 6.47441 8.71457 6.19514 8.51602 5.98352C8.24358 5.69905 7.85339 5.55681 7.34545 5.55681C6.7544 5.55681 6.21645 5.73894 5.7316 6.10321C5.3114 6.42238 4.95123 6.86297 4.65108 7.42498C4.40173 7.87945 4.1847 8.4137 4 9.02775H4.59567C4.82655 8.21249 5.13824 7.56028 5.53074 7.07112C5.70159 6.8595 5.86782 6.69991 6.02944 6.59237C6.19567 6.48482 6.35036 6.43105 6.49351 6.43105C6.6228 6.43105 6.72439 6.48829 6.79827 6.60278C6.88139 6.73461 6.95988 6.97225 7.03377 7.3157L7.26234 8.50737L4.39481 10.9376H5.41991L7.37316 9.14744C7.50245 9.7719 7.72179 10.2437 8.03117 10.5629Z" fill="#AA6363"/>
</svg>

<svg xmlns="http://www.w3.org/2000/svg" width="16" height="16" fill="none"><path fill="#AA6363" fill-rule="evenodd" d="M2 4c0-1.5.5-2 2-2h8c1.5 0 2 .5 2 2v8c0 1.5-.5 2-2 2H4c-1.5 0-2-.5-2-2V4Zm6.031 6.563c.282.291.64.437 1.074.437.535 0 1.027-.121 1.475-.364.605-.33 1.078-.866 1.42-1.608h-.596a1.574 1.574 0 0 1-.512.676c-.236.177-.49.266-.762.266-.259 0-.453-.068-.582-.203-.143-.146-.242-.389-.298-.729l-.131-.744c.383-.312.688-.567.914-.765.23-.198.422-.38.575-.546.166-.18.288-.352.367-.516.078-.166.118-.33.118-.494 0-.118-.019-.234-.056-.349a1.036 1.036 0 0 0-.145-.317.781.781 0 0 0-.256-.224.696.696 0 0 0-.34-.083c-.282 0-.506.04-.672.12-.194.1-.29.236-.29.406 0 .18.05.319.152.416.11.118.281.177.512.177.07 0 .15-.007.243-.021-.023.198-.134.42-.333.666-.198.243-.498.533-.9.87l-.125-.813c-.046-.347-.168-.626-.367-.837-.272-.285-.663-.427-1.17-.427-.592 0-1.13.182-1.614.546-.42.32-.78.76-1.08 1.322-.25.454-.467.989-.652 1.603h.596c.23-.816.542-1.468.935-1.957.17-.212.337-.371.498-.479a.867.867 0 0 1 .465-.16c.129-.001.23.056.304.17.083.133.162.37.236.714l.228 1.191-2.867 2.43H5.42l1.953-1.79c.13.625.349 1.097.658 1.416Z" clip-rule="evenodd"/></svg>
